svg/color/bhig.svg

<?xml version="1.0" encoding="UTF-8" ?>
<!DOCTYPE svg PUBLIC "-//W3C//DTD SVG 1.1//EN" "http://www.w3.org/Graphics/SVG/1.1/DTD/svg11.dtd">
<svg width="216pt" height="250pt" viewBox="0 0 216 250" version="1.1" xmlns="http://www.w3.org/2000/svg">
<g id="#ffffffff">
<path fill="#ffffff" opacity="1.00" d=" M 0.00 0.00 L 216.00 0.00 L 216.00 250.00 L 0.00 250.00 L 0.00 0.00 M 37.04 81.96 C 35.99 82.61 34.43 83.40 34.81 84.94 C 34.83 111.99 34.83 139.04 34.81 166.09 C 34.42 167.63 36.03 168.37 37.05 169.03 C 60.77 182.64 84.43 196.34 108.14 209.96 C 132.69 196.02 157.12 181.84 181.56 167.69 C 181.52 139.56 181.54 111.43 181.55 83.30 C 157.13 69.14 132.69 54.98 108.14 41.03 C 84.43 54.64 60.77 68.37 37.04 81.96 Z" />
<path fill="#ffffff" opacity="1.00" d=" M 71.62 81.71 C 79.61 76.39 88.49 72.30 96.72 67.29 C 97.50 70.82 97.14 74.44 97.18 78.02 C 97.20 102.78 97.18 127.55 97.20 152.31 C 100.81 152.33 104.42 152.33 108.03 152.32 C 111.82 152.33 115.62 152.33 119.41 152.30 C 119.48 143.35 119.37 134.39 119.47 125.44 C 112.27 125.34 105.08 125.22 97.88 125.33 C 101.16 121.51 104.85 118.05 108.27 114.36 C 111.74 110.78 115.14 107.12 118.61 103.54 C 119.42 102.47 120.69 102.14 121.98 102.25 C 125.86 102.29 129.96 101.87 133.59 103.54 C 139.98 106.30 144.93 112.84 144.79 119.95 C 144.85 132.31 144.82 144.67 144.81 157.02 C 145.24 166.63 136.49 175.33 126.98 175.39 C 120.66 175.49 114.34 175.38 108.02 175.42 C 101.69 175.36 95.36 175.52 89.03 175.36 C 79.58 175.12 71.29 166.45 71.54 156.99 C 71.61 131.90 71.45 106.80 71.62 81.71 Z" />
</g>
<g id="#f38f36ff">
<path fill="#f38f36" opacity="1.00" d=" M 37.04 81.96 C 60.77 68.37 84.43 54.64 108.14 41.03 C 108.14 65.47 107.71 89.92 108.27 114.36 C 104.85 118.05 101.16 121.51 97.88 125.33 C 101.20 125.63 104.53 125.86 107.86 125.96 C 108.26 134.74 107.99 143.53 108.03 152.32 C 104.42 152.33 100.81 152.33 97.20 152.31 C 97.18 127.55 97.20 102.78 97.18 78.02 C 97.14 74.44 97.50 70.82 96.72 67.29 C 88.49 72.30 79.61 76.39 71.62 81.71 C 71.45 106.80 71.61 131.90 71.54 156.99 C 71.29 166.45 79.58 175.12 89.03 175.36 C 95.36 175.52 101.69 175.36 108.02 175.42 C 108.14 186.93 107.99 198.45 108.14 209.96 C 84.43 196.34 60.77 182.64 37.05 169.03 C 36.03 168.37 34.42 167.63 34.81 166.09 C 34.83 139.04 34.83 111.99 34.81 84.94 C 34.43 83.40 35.99 82.61 37.04 81.96 Z" />
</g>
<g id="#f6ac4fff">
<path fill="#f6ac4f" opacity="1.00" d=" M 108.14 41.03 C 132.69 54.98 157.13 69.14 181.55 83.30 C 181.54 111.43 181.52 139.56 181.56 167.69 C 157.12 181.84 132.69 196.02 108.14 209.96 C 107.99 198.45 108.14 186.93 108.02 175.42 C 114.34 175.38 120.66 175.49 126.98 175.39 C 136.49 175.33 145.24 166.63 144.81 157.02 C 144.82 144.67 144.85 132.31 144.79 119.95 C 144.93 112.84 139.98 106.30 133.59 103.54 C 129.96 101.87 125.86 102.29 121.98 102.25 C 120.69 102.14 119.42 102.47 118.61 103.54 C 115.14 107.12 111.74 110.78 108.27 114.36 C 107.71 89.92 108.14 65.47 108.14 41.03 Z" />
<path fill="#f6ac4f" opacity="1.00" d=" M 97.88 125.33 C 105.08 125.22 112.27 125.34 119.47 125.44 C 119.37 134.39 119.48 143.35 119.41 152.30 C 115.62 152.33 111.82 152.33 108.03 152.32 C 107.99 143.53 108.26 134.74 107.86 125.96 C 104.53 125.86 101.20 125.63 97.88 125.33 Z" />
</g>
</svg>

<?xml version="1.0" encoding="utf-8"?>
<!-- Generator: Adobe Illustrator 26.0.3, SVG Export Plug-In . SVG Version: 6.00 Build 0)  -->
<svg version="1.1" id="Layer_1" xmlns="http://www.w3.org/2000/svg" xmlns:xlink="http://www.w3.org/1999/xlink" x="0px" y="0px"
	 viewBox="0 0 216 250" style="enable-background:new 0 0 216 250;" xml:space="preserve">
<style type="text/css">
	.st0{fill:#FFFFFF;}
	.st1{fill:#F38F36;}
	.st2{fill:#F6AC4F;}
</style>
<g id="_x23_ffffffff">
	<path class="st0" d="M71.6,81.7c8-5.3,16.9-9.4,25.1-14.4c0.8,3.5,0.4,7.2,0.5,10.7c0,24.8,0,49.5,0,74.3c3.6,0,7.2,0,10.8,0
		c3.8,0,7.6,0,11.4,0c0.1-8.9,0-17.9,0.1-26.9c-7.2-0.1-14.4-0.2-21.6-0.1c3.3-3.8,7-7.3,10.4-11c3.5-3.6,6.9-7.2,10.3-10.8
		c0.8-1.1,2.1-1.4,3.4-1.3c3.9,0,8-0.4,11.6,1.3c6.4,2.8,11.3,9.3,11.2,16.4c0.1,12.4,0,24.7,0,37.1c0.4,9.6-8.3,18.3-17.8,18.4
		c-6.3,0.1-12.6,0-19,0c-6.3-0.1-12.7,0.1-19-0.1c-9.4-0.2-17.7-8.9-17.5-18.4C71.6,131.9,71.4,106.8,71.6,81.7z"/>
</g>
<g id="_x23_f38f36ff">
	<path class="st1" d="M37,82C60.8,68.4,84.4,54.6,108.1,41c0,24.4-0.4,48.9,0.1,73.3c-3.4,3.7-7.1,7.2-10.4,11
		c3.3,0.3,6.7,0.5,10,0.6c0.4,8.8,0.1,17.6,0.2,26.4c-3.6,0-7.2,0-10.8,0c0-24.8,0-49.5,0-74.3c0-3.6,0.3-7.2-0.5-10.7
		c-8.2,5-17.1,9.1-25.1,14.4c-0.2,25.1,0,50.2-0.1,75.3c-0.2,9.5,8,18.1,17.5,18.4c6.3,0.2,12.7,0,19,0.1c0.1,11.5,0,23,0.1,34.5
		C84.4,196.3,60.8,182.6,37,169c-1-0.7-2.6-1.4-2.2-2.9c0-27.1,0-54.1,0-81.1C34.4,83.4,36,82.6,37,82z"/>
</g>
<g id="_x23_f6ac4fff">
	<path class="st2" d="M108.1,41c24.6,14,49,28.1,73.4,42.3c0,28.1,0,56.3,0,84.4c-24.4,14.1-48.9,28.3-73.4,42.3
		c-0.2-11.5,0-23-0.1-34.5c6.3,0,12.6,0.1,19,0c9.5-0.1,18.3-8.8,17.8-18.4c0-12.4,0-24.7,0-37.1c0.1-7.1-4.8-13.6-11.2-16.4
		c-3.6-1.7-7.7-1.2-11.6-1.3c-1.3-0.1-2.6,0.2-3.4,1.3c-3.5,3.6-6.9,7.2-10.3,10.8C107.7,89.9,108.1,65.5,108.1,41z"/>
	<path class="st2" d="M97.9,125.3c7.2-0.1,14.4,0,21.6,0.1c-0.1,8.9,0,17.9-0.1,26.9c-3.8,0-7.6,0-11.4,0c0-8.8,0.2-17.6-0.2-26.4
		C104.5,125.9,101.2,125.6,97.9,125.3z"/>
</g>
</svg>
